src/components/icons/SVG/view-list.svg

<!-- Generated by IcoMoon.io -->
<svg version="1.1" xmlns="http://www.w3.org/2000/svg" width="34" height="32" viewBox="0 0 34 32">
<title>view-list</title>
<path d="M4.309 4h5.538v5.538h-5.538v-5.538zM13.539 4h16.615v5.538h-16.615v-5.538zM13.539 13.231h16.615v5.538h-16.615v-5.538zM4.309 13.231h5.538v5.538h-5.538v-5.538zM13.539 22.462h16.615v5.538h-16.615v-5.538zM4.309 22.462h5.538v5.538h-5.538v-5.538z"></path>
</svg>

<svg xmlns="http://www.w3.org/2000/svg" width="34" height="32"><path d="M4.309 4h5.538v5.538H4.309V4zm9.23 0h16.615v5.538H13.539V4zm0 9.231h16.615v5.538H13.539v-5.538zm-9.23 0h5.538v5.538H4.309v-5.538zm9.23 9.231h16.615V28H13.539v-5.538zm-9.23 0h5.538V28H4.309v-5.538z"/></svg>
